X: 1
T: Reel Antoinette
O: Qu\'ebec
R: reel
Z: 2009 John Chambers <jc:trillian.mit.edu>
M: 2/4
L: 1/16
K: D
|: "D"A2f2 f2df | Affd f2df | a3a afa2 | "A7"bage c3B \
| A2g2 g2eg | Agge g2eg | a3a ageg | "D"fgfe d3A |
| "D"A2f2 f2df | Affd f2df | a3a afa2 | "G"b6 a2 \
| "(Em)"gbbg b2ag | "D"faaf a3A | "A7"Acef gece | "D"dBAF D4 :|
|: "D"f3f d2f2 | b2fb a3a | f2af d2f2 | "Em"a2fa g3f \
| g3g f2e2 | "A7"c'6 b2 | a2aa g2eg | "D"fgfe d2Ad |
| "D"f3f d2f2 | b2fb a3z | d3d cdcA | "G"B4 B2z2 \
| "(Em)"Bg2g g2fe | "D"dffd f3A | "A7"Acef gece | "D"dBAF D4 :|
